X:1
T:Minueto II Suite en SolM "Música Acuática"
T:Haendel
T:Minueto Suite II Música Acuática
T:Minueto II Suite en Sol menor &quot;Música Acuática&quot;
T:Minueto II Suite en Sol menor &quot;Música Acuática&quot;
T:Minueto II Suite en Sol menor &quot;Música Acuática&quot;
Z:Minueto II Suite en Sol menor "Música Acuática"
%%score 1 [ 2 3 4 ]
L:1/8
Q:1/4=125
M:3/4
K:Bb
V:1 treble nm="Piccolo" snm="Picc."
V:2 treble nm="Violin 1" snm="Vln. 1"
V:3 alto nm="Viola" snm="Vla."
V:4 bass nm="Contrabass" snm="Cb."
V:1
|: d2 b2 B2 | A6 | d2 a2 A2 | G4 G2 | d2 g2 G2 | ^F4 A2 | d2 c2 B2 | A2 G^F =ED | d2 b2 B2 | A6 | %10
 d2 a2 A2 | G6 | d2 g2 G2 | ^F2 =ED d2 | cB A3 G |1 G6 :|2 G6 |: dc B2 f2 | f6 | cB A2 f2 | f6 | %21
 BA G2 f2 | f6 | f2 ed cB | AB c2 F2 | dc B2 b2 | b6 | dc B2 b2 | b6 | e2 d2 c2 | f2 ed cB | %31
 c2 F2 A2 | B6 :| d2 b2 B2 | A6 | d2 a2 A2 | G4 G2 | d2 g2 G2 | ^F4 A2 | d2 c2 B2 | A2 G^F =ED | %41
 d2 b2 B2 | A6 | d2 a2 A2 | G6 | d2 g2 G2 | ^F2 =ED d2 | cB A3 G | G6 |] %49
V:2
|: d2 b2 B2 | A6 | d2 a2 A2 | G4 G2 | d2 g2 G2 | ^F4 A2 | d2 c2 B2 | A2 G^F =ED | d2 b2 B2 | A6 | %10
 d2 a2 A2 | G6 | d2 g2 G2 | ^F2 =ED d2 | cB A3 G |1 G6 :|2 G6 |: dc B2 f2 | f6 | cB A2 f2 | f6 | %21
 BA G2 f2 | f6 | f2 ed cB | AB c2 F2 | dc B2 b2 | b6 | dc B2 b2 | b6 | e2 d2 c2 | f2 ed cB | %31
 c2 F2 A2 | B6 :| d2 b2 B2 | A6 | d2 a2 A2 | G4 G2 | d2 g2 G2 | ^F4 A2 | d2 c2 B2 | A2 G^F =ED | %41
 d2 b2 B2 | A6 | d2 a2 A2 | G6 | d2 g2 G2 | ^F2 =ED d2 | cB A3 G | G6 |] %49
V:3
|: d4 G2 | A6 | A4 F2 | G6 | G4 G2 | D4 ^F2 | G2 A2 B2 | ^F4 A2 | d4 G2 | A6 | A4 F2 | G6 | G4 G2 | %13
 D4 G2 | G2 G2 ^F2 |1 G6 :|2 G6 |: F6 | C6 | F6 | B,6 | E6 | A,6 | B2 F2 G2 | C4 A,2 | F6 | G6 | %27
 F6 | E6 | A6 | F2 A2 B2 | G2 F2 E2 | D6 :| d4 G2 | A6 | A4 F2 | G6 | G4 G2 | D4 ^F2 | G2 A2 B2 | %40
 ^F4 A2 | d4 G2 | A6 | A4 F2 | G6 | G4 G2 | D4 G2 | G2 G2 ^F2 | G6 |] %49
V:4
|: .E,,2 .B,,2 .E,2 | .F,,2 .A,,2 .E,2 | .F,,2 .A,,2 .D,2 | .E,,2 .G,,2 .D,2 | .E,,2 .G,,2 .C,2 | %5
 .D,,2 .A,,2 .C,2 | .B,,2 .A,,2 .G,,2 | .D,,2 .=E,,2 .^F,,2 | .E,,2 .B,,2 .E,2 | .F,,2 .A,,2 .E,2 | %10
 .F,,2 .A,,2 .D,2 | .E,,2 .G,,2 .D,2 | .E,,2 .G,,2 .C,2 | .D,,2 .C,2 .B,,2 | .G,,2 .D,2 .D,,2 |1 %15
 .G,,2 .D,,2 .G,,,2 :|2 .G,,6 |: .B,,2 .D,2 .F,2 | .A,,2 .C,2 .F,2 | .A,,2 .C,2 .F,2 | %20
 .G,,2 .B,,2 .F,2 | .G,,2 .B,,2 .E,2 | .F,,2 .A,,2 .E,2 | .D,2 .B,,2 .E,,2 | .F,,2 .A,,2 .C,2 | %25
 .D,,2 .F,,2 .B,,2 | .E,,2 .G,,2 .C,2 | .F,,2 .B,,2 .D,2 | .G,,2 .B,,2 .E,2 | .C,,2 .E,,2 .A,,2 | %30
 .D,,2 .F,,2 .G,,2 | .E,,2 .F,,2 .F,,,2 | .B,,,2 .D,.C, .B,,.A,, :| .E,,2 .B,,2 .E,2 | %34
 .F,,2 .A,,2 .E,2 | .F,,2 .A,,2 .D,2 | .E,,2 .G,,2 .D,2 | .E,,2 .G,,2 .C,2 | .D,,2 .A,,2 .C,2 | %39
 .B,,2 .A,,2 .G,,2 | .D,,2 .=E,,2 .^F,,2 | .E,,2 .B,,2 .E,2 | .F,,2 .A,,2 .E,2 | .F,,2 .A,,2 .D,2 | %44
 .E,,2 .G,,2 .D,2 | .E,,2 .G,,2 .C,2 | .D,,2 .C,2 .B,,2 | .G,,2 .D,2 .D,,2 | .G,,6 |] %49

